svg/blobs-icons/no-decorations/configuration.svg

<svg xmlns="http://www.w3.org/2000/svg" xmlns:xlink="http://www.w3.org/1999/xlink" preserveAspectRatio="xMidYMid" width="168" height="216" viewBox="0 0 168 216"><defs><style>.cls-3{fill:#142a3b}.cls-4{fill:#000;opacity:.35}.cls-12{fill:#ff3a2f}</style></defs><g id="group-85svg"><path d="M140.491 80.341s0-20.203.0-20.203-21.156.0-21.156.0C117.912 53.884 115.334 48.072 111.822 42.944l15.235-15.235s-14.286-14.285-14.286-14.285S97.302 28.893 97.302 28.893C92.199 25.633 86.477 23.258 80.342 22.008V-.009s-20.204.0-20.204.0.0 22.017.0 22.017c-6.136 1.25-11.858 3.625-16.961 6.885L27.707 13.424S13.422 27.709 13.422 27.709 28.657 42.944 28.657 42.944c-3.511 5.128-6.089 10.94-7.513 17.194H-.011s0 20.203.0 20.203 20.7.0 20.7.0C21.87 86.896 24.317 93.009 27.773 98.42L13.422 112.77s14.285 14.286 14.285 14.286 14.118-14.118 14.118-14.118C47.26 116.659 53.457 119.347 60.138 120.707v19.781s20.204.0 20.204.0.0-19.781.0-19.781C87.023 119.347 93.221 116.659 98.655 112.938l14.116 14.118s14.286-14.286 14.286-14.286-14.35-14.35-14.35-14.35C116.162 93.009 118.609 86.896 119.79 80.341h20.701zM84.839 95.527s-29.199.0-29.199.0-14.6-25.288-14.6-25.288 14.6-25.287 14.6-25.287 29.199.0 29.199.0 14.6 25.287 14.6 25.287-14.6 25.288-14.6 25.288z" id="path-1" class="cls-3" fill-rule="evenodd"/><path d="M35.339 28.893c1.617-1.033 3.316-1.941 5.05-2.789L27.707 13.424s-3.918 3.918-3.918 3.918 11.55 11.551 11.55 11.551z" id="path-2" class="cls-4" fill-rule="evenodd"/><path d="M89.465 28.893s2.788-2.789 2.788-2.789c-3.74-1.826-7.72-3.242-11.911-4.095V-.008S72.504-.008 72.504-.008s0 22.017.0 22.017C78.639 23.258 84.362 25.633 89.465 28.893z" id="path-3" class="cls-4" fill-rule="evenodd"/><path d="M55.64 44.952s-7.838.0-7.838.0-14.6 25.287-14.6 25.287 14.6 25.288 14.6 25.288 7.838.0 7.838.0-14.6-25.288-14.6-25.288 14.6-25.287 14.6-25.287z" id="path-4" class="cls-4" fill-rule="evenodd"/><path d="M119.22 27.709s-15.236 15.235-15.236 15.235C107.496 48.072 110.074 53.884 111.498 60.138H119.335C117.912 53.884 115.334 48.072 111.822 42.944l15.235-15.235s-14.286-14.285-14.286-14.285S108.853 17.342 108.853 17.342 119.22 27.709 119.22 27.709z" id="path-5" class="cls-4" fill-rule="evenodd"/><path d="M132.653 60.138s0 20.203.0 20.203S140.491 80.341 140.491 80.341s0-20.203.0-20.203S132.653 60.138 132.653 60.138z" id="path-6" class="cls-4" fill-rule="evenodd"/><path d="M33.987 112.938s-10.198 10.198-10.198 10.198 3.918 3.92 3.918 3.92 11.188-11.189 11.188-11.189C37.205 114.973 35.556 114.013 33.987 112.938z" id="path-7" class="cls-4" fill-rule="evenodd"/><path d="M119.791 80.341S111.953 80.341 111.953 80.341C110.772 86.896 108.325 93.01 104.869 98.42l14.351 14.35s-10.367 10.367-10.367 10.367S112.771 127.056 112.771 127.056s14.286-14.286 14.286-14.286-14.35-14.35-14.35-14.35c3.456-5.41 5.902-11.524 7.084-18.079z" id="path-8" class="cls-4" fill-rule="evenodd"/><path d="M90.817 112.938C85.382 116.659 79.186 119.347 72.504 120.707v19.781S80.342 140.488 80.342 140.488s0-19.781.0-19.781C85.094 119.74 89.585 118.073 93.747 115.868L90.817 112.938z" id="path-9" class="cls-4" fill-rule="evenodd"/><path d="M167.488 178.599s0-12.403.0-12.403-12.988.0-12.988.0C153.626 162.357 152.043 158.788 149.887 155.64L159.241 146.287S150.47 137.517 150.47 137.517 140.973 147.014 140.973 147.014C137.84 145.013 134.328 143.555 130.561 142.788V129.27s-12.403.0-12.403.0.0 13.518.0 13.518C114.391 143.555 110.878 145.013 107.745 147.014L98.249 137.517S89.478 146.287 89.478 146.287 98.831 155.64 98.831 155.64C96.676 158.788 95.093 162.357 94.219 166.196H81.231s0 12.403.0 12.403 12.708.0 12.708.0C94.665 182.623 96.167 186.375 98.289 189.698L89.478 198.507S98.249 207.278 98.249 207.278 106.915 198.611 106.915 198.611C110.251 200.895 114.056 202.545 118.158 203.38v12.143s12.403.0 12.403.0.0-12.143.0-12.143C134.663 202.545 138.468 200.895 141.804 198.611l8.666 8.667S159.241 198.507 159.241 198.507 150.43 189.698 150.43 189.698C152.552 186.375 154.054 182.623 154.779 178.599h12.709zm-34.166 9.322s-17.926.0-17.926.0S106.433 172.397 106.433 172.397 115.396 156.873 115.396 156.873s17.926.0 17.926.0 8.964 15.524 8.964 15.524-8.964 15.524-8.964 15.524z" id="path-10" class="cls-12" fill-rule="evenodd"/><path d="M99.907 147.014C101.537 145.973 103.274 145.087 105.092 144.361L98.249 137.517S94.33 141.436 94.33 141.436s5.577 5.578 5.577 5.578z" id="path-11" class="cls-4" fill-rule="evenodd"/><path d="M133.136 147.014S135.788 144.361 135.788 144.361C134.112 143.692 132.368 143.156 130.561 142.788V129.27S122.723 129.27 122.723 129.27s0 13.518.0 13.518C126.489 143.555 130.003 145.013 133.136 147.014z" id="path-12" class="cls-4" fill-rule="evenodd"/><path d="M151.403 146.287S142.049 155.64 142.049 155.64C144.205 158.788 145.788 162.356 146.662 166.196H154.5C153.626 162.356 152.043 158.788 149.887 155.64L159.241 146.287S150.47 137.517 150.47 137.517 146.551 141.436 146.551 141.436s4.852 4.851 4.852 4.851z" id="path-13" class="cls-4" fill-rule="evenodd"/><path d="M115.396 156.873S107.558 156.873 107.558 156.873 98.595 172.397 98.595 172.397 107.558 187.921 107.558 187.921 115.396 187.921 115.396 187.921 106.433 172.397 106.433 172.397 115.396 156.873 115.396 156.873z" id="path-14" class="cls-4" fill-rule="evenodd"/><path d="M154.779 178.598S146.941 178.598 146.941 178.598C146.216 182.623 144.714 186.376 142.593 189.698l8.81 8.809s-4.852 4.851-4.852 4.851S150.47 207.277 150.47 207.277 159.241 198.507 159.241 198.507s-8.81-8.809-8.81-8.809C152.552 186.376 154.054 182.623 154.779 178.598z" id="path-15" class="cls-4" fill-rule="evenodd"/><path d="M159.649 166.196s0 12.402.0 12.402S167.487 178.598 167.487 178.598s0-12.402.0-12.402S159.649 166.196 159.649 166.196z" id="path-16" class="cls-4" fill-rule="evenodd"/><path d="M99.077 198.611S94.33 203.358 94.33 203.358 98.249 207.277 98.249 207.277 104.127 201.4 104.127 201.4C102.352 200.622 100.659 199.693 99.077 198.611z" id="path-17" class="cls-4" fill-rule="evenodd"/><path d="M133.966 198.611C130.63 200.895 126.825 202.545 122.723 203.38v12.144S130.561 215.524 130.561 215.524s0-12.144.0-12.144C132.718 202.941 134.787 202.264 136.755 201.4L133.966 198.611z" id="path-18" class="cls-4" fill-rule="evenodd"/></g></svg>

<svg xmlns="http://www.w3.org/2000/svg" xmlns:xlink="http://www.w3.org/1999/xlink" preserveAspectRatio="xMidYMid" width="168" height="216" viewBox="0 0 168 216">
  <defs>
    <style>

      .cls-3 {
        fill: #142a3b;
      }

      .cls-4 {
        fill: #000000;
        opacity: 0.35;
      }

      .cls-12 {
        fill: #ff3a2f;
      }
    </style>
  </defs>
  <g id="group-85svg">
    <path d="M140.491,80.341 C140.491,80.341 140.491,60.138 140.491,60.138 C140.491,60.138 119.335,60.138 119.335,60.138 C117.912,53.884 115.334,48.072 111.822,42.944 C111.822,42.944 127.057,27.709 127.057,27.709 C127.057,27.709 112.771,13.424 112.771,13.424 C112.771,13.424 97.302,28.893 97.302,28.893 C92.199,25.633 86.477,23.258 80.342,22.008 C80.342,22.008 80.342,-0.009 80.342,-0.009 C80.342,-0.009 60.138,-0.009 60.138,-0.009 C60.138,-0.009 60.138,22.008 60.138,22.008 C54.002,23.258 48.280,25.633 43.177,28.893 C43.177,28.893 27.707,13.424 27.707,13.424 C27.707,13.424 13.422,27.709 13.422,27.709 C13.422,27.709 28.657,42.944 28.657,42.944 C25.146,48.072 22.568,53.884 21.144,60.138 C21.144,60.138 -0.011,60.138 -0.011,60.138 C-0.011,60.138 -0.011,80.341 -0.011,80.341 C-0.011,80.341 20.689,80.341 20.689,80.341 C21.870,86.896 24.317,93.009 27.773,98.420 C27.773,98.420 13.422,112.770 13.422,112.770 C13.422,112.770 27.707,127.056 27.707,127.056 C27.707,127.056 41.825,112.938 41.825,112.938 C47.260,116.659 53.457,119.347 60.138,120.707 C60.138,120.707 60.138,140.488 60.138,140.488 C60.138,140.488 80.342,140.488 80.342,140.488 C80.342,140.488 80.342,120.707 80.342,120.707 C87.023,119.347 93.221,116.659 98.655,112.938 C98.655,112.938 112.771,127.056 112.771,127.056 C112.771,127.056 127.057,112.770 127.057,112.770 C127.057,112.770 112.707,98.420 112.707,98.420 C116.162,93.009 118.609,86.896 119.790,80.341 C119.790,80.341 140.491,80.341 140.491,80.341 ZM84.839,95.527 C84.839,95.527 55.640,95.527 55.640,95.527 C55.640,95.527 41.040,70.239 41.040,70.239 C41.040,70.239 55.640,44.952 55.640,44.952 C55.640,44.952 84.839,44.952 84.839,44.952 C84.839,44.952 99.439,70.239 99.439,70.239 C99.439,70.239 84.839,95.527 84.839,95.527 Z" id="path-1" class="cls-3" fill-rule="evenodd"/>
    <path d="M35.339,28.893 C36.956,27.860 38.655,26.952 40.389,26.104 C40.389,26.104 27.707,13.424 27.707,13.424 C27.707,13.424 23.789,17.342 23.789,17.342 C23.789,17.342 35.339,28.893 35.339,28.893 Z" id="path-2" class="cls-4" fill-rule="evenodd"/>
    <path d="M89.465,28.893 C89.465,28.893 92.253,26.104 92.253,26.104 C88.513,24.278 84.533,22.862 80.342,22.009 C80.342,22.009 80.342,-0.008 80.342,-0.008 C80.342,-0.008 72.504,-0.008 72.504,-0.008 C72.504,-0.008 72.504,22.009 72.504,22.009 C78.639,23.258 84.362,25.633 89.465,28.893 Z" id="path-3" class="cls-4" fill-rule="evenodd"/>
    <path d="M55.640,44.952 C55.640,44.952 47.802,44.952 47.802,44.952 C47.802,44.952 33.202,70.239 33.202,70.239 C33.202,70.239 47.802,95.527 47.802,95.527 C47.802,95.527 55.640,95.527 55.640,95.527 C55.640,95.527 41.040,70.239 41.040,70.239 C41.040,70.239 55.640,44.952 55.640,44.952 Z" id="path-4" class="cls-4" fill-rule="evenodd"/>
    <path d="M119.220,27.709 C119.220,27.709 103.984,42.944 103.984,42.944 C107.496,48.072 110.074,53.884 111.498,60.138 C111.498,60.138 119.335,60.138 119.335,60.138 C117.912,53.884 115.334,48.072 111.822,42.944 C111.822,42.944 127.057,27.709 127.057,27.709 C127.057,27.709 112.771,13.424 112.771,13.424 C112.771,13.424 108.853,17.342 108.853,17.342 C108.853,17.342 119.220,27.709 119.220,27.709 Z" id="path-5" class="cls-4" fill-rule="evenodd"/>
    <path d="M132.653,60.138 C132.653,60.138 132.653,80.341 132.653,80.341 C132.653,80.341 140.491,80.341 140.491,80.341 C140.491,80.341 140.491,60.138 140.491,60.138 C140.491,60.138 132.653,60.138 132.653,60.138 Z" id="path-6" class="cls-4" fill-rule="evenodd"/>
    <path d="M33.987,112.938 C33.987,112.938 23.789,123.136 23.789,123.136 C23.789,123.136 27.707,127.056 27.707,127.056 C27.707,127.056 38.895,115.867 38.895,115.867 C37.205,114.973 35.556,114.013 33.987,112.938 Z" id="path-7" class="cls-4" fill-rule="evenodd"/>
    <path d="M119.791,80.341 C119.791,80.341 111.953,80.341 111.953,80.341 C110.772,86.896 108.325,93.010 104.869,98.420 C104.869,98.420 119.220,112.770 119.220,112.770 C119.220,112.770 108.853,123.137 108.853,123.137 C108.853,123.137 112.771,127.056 112.771,127.056 C112.771,127.056 127.057,112.770 127.057,112.770 C127.057,112.770 112.707,98.420 112.707,98.420 C116.163,93.010 118.609,86.896 119.791,80.341 Z" id="path-8" class="cls-4" fill-rule="evenodd"/>
    <path d="M90.817,112.938 C85.382,116.659 79.186,119.347 72.504,120.707 C72.504,120.707 72.504,140.488 72.504,140.488 C72.504,140.488 80.342,140.488 80.342,140.488 C80.342,140.488 80.342,120.707 80.342,120.707 C85.094,119.740 89.585,118.073 93.747,115.868 C93.747,115.868 90.817,112.938 90.817,112.938 Z" id="path-9" class="cls-4" fill-rule="evenodd"/>
    <path d="M167.488,178.599 C167.488,178.599 167.488,166.196 167.488,166.196 C167.488,166.196 154.500,166.196 154.500,166.196 C153.626,162.357 152.043,158.788 149.887,155.640 C149.887,155.640 159.241,146.287 159.241,146.287 C159.241,146.287 150.470,137.517 150.470,137.517 C150.470,137.517 140.973,147.014 140.973,147.014 C137.840,145.013 134.328,143.555 130.561,142.788 C130.561,142.788 130.561,129.270 130.561,129.270 C130.561,129.270 118.158,129.270 118.158,129.270 C118.158,129.270 118.158,142.788 118.158,142.788 C114.391,143.555 110.878,145.013 107.745,147.014 C107.745,147.014 98.249,137.517 98.249,137.517 C98.249,137.517 89.478,146.287 89.478,146.287 C89.478,146.287 98.831,155.640 98.831,155.640 C96.676,158.788 95.093,162.357 94.219,166.196 C94.219,166.196 81.231,166.196 81.231,166.196 C81.231,166.196 81.231,178.599 81.231,178.599 C81.231,178.599 93.939,178.599 93.939,178.599 C94.665,182.623 96.167,186.375 98.289,189.698 C98.289,189.698 89.478,198.507 89.478,198.507 C89.478,198.507 98.249,207.278 98.249,207.278 C98.249,207.278 106.915,198.611 106.915,198.611 C110.251,200.895 114.056,202.545 118.158,203.380 C118.158,203.380 118.158,215.523 118.158,215.523 C118.158,215.523 130.561,215.523 130.561,215.523 C130.561,215.523 130.561,203.380 130.561,203.380 C134.663,202.545 138.468,200.895 141.804,198.611 C141.804,198.611 150.470,207.278 150.470,207.278 C150.470,207.278 159.241,198.507 159.241,198.507 C159.241,198.507 150.430,189.698 150.430,189.698 C152.552,186.375 154.054,182.623 154.779,178.599 C154.779,178.599 167.488,178.599 167.488,178.599 ZM133.322,187.921 C133.322,187.921 115.396,187.921 115.396,187.921 C115.396,187.921 106.433,172.397 106.433,172.397 C106.433,172.397 115.396,156.873 115.396,156.873 C115.396,156.873 133.322,156.873 133.322,156.873 C133.322,156.873 142.286,172.397 142.286,172.397 C142.286,172.397 133.322,187.921 133.322,187.921 Z" id="path-10" class="cls-12" fill-rule="evenodd"/>
    <path d="M99.907,147.014 C101.537,145.973 103.274,145.087 105.092,144.361 C105.092,144.361 98.249,137.517 98.249,137.517 C98.249,137.517 94.330,141.436 94.330,141.436 C94.330,141.436 99.907,147.014 99.907,147.014 Z" id="path-11" class="cls-4" fill-rule="evenodd"/>
    <path d="M133.136,147.014 C133.136,147.014 135.788,144.361 135.788,144.361 C134.112,143.692 132.368,143.156 130.561,142.788 C130.561,142.788 130.561,129.270 130.561,129.270 C130.561,129.270 122.723,129.270 122.723,129.270 C122.723,129.270 122.723,142.788 122.723,142.788 C126.489,143.555 130.003,145.013 133.136,147.014 Z" id="path-12" class="cls-4" fill-rule="evenodd"/>
    <path d="M151.403,146.287 C151.403,146.287 142.049,155.640 142.049,155.640 C144.205,158.788 145.788,162.356 146.662,166.196 C146.662,166.196 154.500,166.196 154.500,166.196 C153.626,162.356 152.043,158.788 149.887,155.640 C149.887,155.640 159.241,146.287 159.241,146.287 C159.241,146.287 150.470,137.517 150.470,137.517 C150.470,137.517 146.551,141.436 146.551,141.436 C146.551,141.436 151.403,146.287 151.403,146.287 Z" id="path-13" class="cls-4" fill-rule="evenodd"/>
    <path d="M115.396,156.873 C115.396,156.873 107.558,156.873 107.558,156.873 C107.558,156.873 98.595,172.397 98.595,172.397 C98.595,172.397 107.558,187.921 107.558,187.921 C107.558,187.921 115.396,187.921 115.396,187.921 C115.396,187.921 106.433,172.397 106.433,172.397 C106.433,172.397 115.396,156.873 115.396,156.873 Z" id="path-14" class="cls-4" fill-rule="evenodd"/>
    <path d="M154.779,178.598 C154.779,178.598 146.941,178.598 146.941,178.598 C146.216,182.623 144.714,186.376 142.593,189.698 C142.593,189.698 151.403,198.507 151.403,198.507 C151.403,198.507 146.551,203.358 146.551,203.358 C146.551,203.358 150.470,207.277 150.470,207.277 C150.470,207.277 159.241,198.507 159.241,198.507 C159.241,198.507 150.431,189.698 150.431,189.698 C152.552,186.376 154.054,182.623 154.779,178.598 Z" id="path-15" class="cls-4" fill-rule="evenodd"/>
    <path d="M159.649,166.196 C159.649,166.196 159.649,178.598 159.649,178.598 C159.649,178.598 167.487,178.598 167.487,178.598 C167.487,178.598 167.487,166.196 167.487,166.196 C167.487,166.196 159.649,166.196 159.649,166.196 Z" id="path-16" class="cls-4" fill-rule="evenodd"/>
    <path d="M99.077,198.611 C99.077,198.611 94.330,203.358 94.330,203.358 C94.330,203.358 98.249,207.277 98.249,207.277 C98.249,207.277 104.127,201.400 104.127,201.400 C102.352,200.622 100.659,199.693 99.077,198.611 Z" id="path-17" class="cls-4" fill-rule="evenodd"/>
    <path d="M133.966,198.611 C130.630,200.895 126.825,202.545 122.723,203.380 C122.723,203.380 122.723,215.524 122.723,215.524 C122.723,215.524 130.561,215.524 130.561,215.524 C130.561,215.524 130.561,203.380 130.561,203.380 C132.718,202.941 134.787,202.264 136.755,201.400 C136.755,201.400 133.966,198.611 133.966,198.611 Z" id="path-18" class="cls-4" fill-rule="evenodd"/>
  </g>
</svg>
